X: 1325
T: Kış Geldi Firak Açmadadır...
C: Şevki Bey
O: Turkey
F: http://compmusic.upf.edu/node/140
N: hicaz--sarki--aksak--kis_geldi--sevki_bey
N: makam= hicaz
N: form= sarki
N: usul= aksak = 9/8
M: 9/8
L: 1/16
K: C _7/8B ^f ^c 
Q: 1/4=132
%%MIDI tuningsystem comma53
de2e e2e2 egfg e2e=f ed | e=f edag feed dcd4z2  | 
w:  ARANAĞME  |   | 
cde=f g2a2 agfe dcBA G2 | AB BAed dccB BAAB cde2  | 
w:   |   | 
de2e e2e2 egfg e2e=f ed | e=f edag feed dcd4z2  | 
w:  ARANAĞME  |   | 
cde=f g2a2 agfe dcBA G2 | AB BAed dccB BAA4z2  | 
w:   |   | 
z4 G3A A4 A2AB AG | A2 GFc2 BAAG GFG4z2  | 
w:  Kış  *  gel  |  *  *  *  di  fi *  rak   | 
d2cB cBBA B8 AG | zA2dcB BAA4DE FGA2  | 
w:  gel *  *  di  *  fi *  rak   |  aç *  ma *  da *  dır  SAZ  | 
zd2=f ede2 ec2d cBAG A2 | z2 ABc2 d2e2 f2g2 fed2  | 
w:  sî   |  sî   | 
z2=f4fe e3d cdef ed | c2 d4 A2BA Bcd3ecd  | 
w:  sî ne *  me  *  yâ  |  re   *  SAZ  | 
e4 d3e e8 (3dcd | e3dg2 =fee4f2 e2d2  | \
w:  *  Vus *  lat   |  *  *  yi ne  *  mi  ah   | 
c2BA g2=fe e4 ABcd e^f | 
w:  *  *  *  yi ne  *  mi  SAZ  | 
g2 =feed dcd8z2  | g2=fe dc(3BAB c4 c2{d}cd cB | 
w:  kal *  *  dı  *  gü *  zel   |  kal *  *  dı  *  gü *  *  zel   | 
zA2=c_1/4B2 A2G2 F2E4D2  | z2B4BA BAGF G6 | \
w:  ba   |  baş ka  *  ba *  *  *  har   | 
z2 ABA2 d2dc BcB2 A4  | 
w:  baş *  *  ka  ba *  *  *  ha  | 
G2A4fg agfg a3g fg | a4g3aa4a2 g2f2  | \
w:  re   *  SAZ  |  *  Bâ *  rî   | 
e3f d2e2 fgfe f4 g2 | 
w:  *  *  bu la yım   | 
a2 gfa2 _1/4baa4de fga2  | _1/4b2ag gffe e3d e2f2 a2 | 
w:  ah  *  *  bu la *  yım  SAZ  |  söy *  *  le  *  de  *  sen   | 
g=f edcB BAA4DE FGA2  | zd2=f ede2 ec2d cBAG A2 | 
w:  söy *  *  *  le  *  de  *  sen  SAZ  |  de   | 
z2 ABc2 d2e2 f2g2 =fed2  | z2=f4fe e3d cdef ed | 
w:  de   |  der di *  me  *  ça  | 
c2 d4 A2B3/2A/ Bcd3ecd  | e4 d3e e8 (3dcd | \
w:  re   SAZ  |  *  Vus *  lat   | 
e3dg2 =fee4f2 e2d2  | 
w:  *  *  yi ne  *  mi  ah   | 
c2BA g2=fe e4 ABcd e^f | g2 =feed dcd8z2  | 
w:  *  *  *  yi ne  *  mi  SAZ  |  kal *  *  dı  *  gü *  zel   | 
g2=fe dc(3BAB c4 c2{d}cd cB | zA2=c_1/4B2 A2G2 F2E4D2  | 
w:  kal *  *  dı  *  gü *  *  zel   |  ba   | 
z2B4BA BAGF G6 | z2 ABA2 d2dc BcB2 A4  | \
w:  baş ka  *  ba *  *  *  har   |  baş *  *  ka  ba *  *  *  ha  | 
G2A4e=f edcB A4 z2 | 
w:  re   SAZ *  KARAR  | 
|


